icons/location_small.svg

<svg width="26" height="26" viewBox="0 0 26 26" fill="none" xmlns="http://www.w3.org/2000/svg">
<rect x="0.5" y="0.5" width="25" height="25" stroke="black"/>
<path d="M13 0C8.43147 0 4.62109 3.68012 4.62109 8.37891C4.62109 10.1665 5.15826 11.7605 6.18917 13.2542L12.3588 22.8813C12.6581 23.3493 13.3425 23.3484 13.6412 22.8813L19.8376 13.2215C20.8463 11.7955 21.3789 10.1211 21.3789 8.37891C21.3789 3.75878 17.6201 0 13 0ZM13 12.1875C10.9 12.1875 9.19141 10.4789 9.19141 8.37891C9.19141 6.27895 10.9 4.57031 13 4.57031C15.1 4.57031 16.8086 6.27895 16.8086 8.37891C16.8086 10.4789 15.1 12.1875 13 12.1875Z" fill="#CD06FF"/>
<path d="M18.9548 17.504L15.1193 23.5006C14.1264 25.0485 11.868 25.0435 10.88 23.5021L7.03818 17.5056C3.65798 18.2871 1.57422 19.7188 1.57422 21.4297C1.57422 24.3984 7.46119 26 13 26C18.5388 26 24.4258 24.3984 24.4258 21.4297C24.4258 19.7176 22.3391 18.2851 18.9548 17.504Z" fill="#CD06FF"/>
</svg>

<svg width="26" height="26" fill="none" xmlns="http://www.w3.org/2000/svg"><path stroke="#000" d="M.5.5h25v25H.5z"/><path d="M13 0C8.431 0 4.621 3.68 4.621 8.379c0 1.787.537 3.382 1.568 4.875l6.17 9.627c.3.468.983.467 1.282 0l6.197-9.66a8.342 8.342 0 0 0 1.54-4.842C21.379 3.759 17.62 0 13 0Zm0 12.188a3.813 3.813 0 0 1-3.809-3.81C9.191 6.28 10.9 4.57 13 4.57s3.809 1.709 3.809 3.809S15.1 12.188 13 12.188Z" fill="#CD06FF"/><path d="m18.955 17.504-3.836 5.997c-.993 1.547-3.251 1.543-4.239.001l-3.842-5.996c-3.38.781-5.464 2.213-5.464 3.924C1.574 24.398 7.461 26 13 26c5.539 0 11.426-1.602 11.426-4.57 0-1.712-2.087-3.145-5.471-3.926Z" fill="#CD06FF"/></svg>
